!!!COM: Carl Loewe				
!!!CNT: Deutscher				
!!!TXO: Deutsch				
!!!OTL: "Der Wirthin To2chterlein"				
!!!LYR:Uhland					 			
!!!OPS: Op. 1 				
!!!ONM: No. 2 			
!!!ENC: O'Neal Douglas 					
!!!YOR: Twelve Songs and Ballads Vol. 1 and 2				
!!!YOR: New York:Schirmer, 1903					
!!!ODT: 1823/					
!!NB: Vocal melody and text encoded.
**kern	**text
*staff1	*staff1
*clefG2	*
*k[f#]	*
*M2/4	*
*MM120	*
16r	.
=1	=1
2r	.
=2	=2
2r	.
=3	=3
2r	.
=4	=4
2r	.
=5	=5
2r	.
=6	=6
2r	.
=7	=7
2r	.
=8	=8
2r	.
=9	=9
2r	.
=10	=10
2r	.
=11	=11
2r	.
=12	=12
4r	.
8.r	.
{16d	{Es
=13	=13
4g	zo-
8.g	-gen
16g	drei
=14	=14
4g	Bur-
8.g	-schen
16a	wohl
=15	=15
4cc	u2-
8b	-ber
8b	den
=16	=16
4d}	Rhein,}
4r	.
=17	=17
2r	.
=18	=18
4r	.
8.r	.
{16e	{bei
=19	=19
4a	ei-
8.a	-ner
16a	Frau
=20	=20
4a	Wir-
8.a	-thin
16b	da
=21	=21
4cc	kehr-
8.b	-ten
16b	sie
=22	=22
4g}	ein.}
4r	.
=23	=23
2r	.
=24	=24
4r	.
8.r	.
{16d	{"Frau
=25	=25
4g	Wir-
8.g	-thin
16g	hat
=26	=26
4g	sie
(8.g	gut
16a)	|
=27	=27
4cc	Bier
4b	und
=28	=28
4d}	Wein?}
4r	.
=29	=29
2r	.
=30	=30
4r	.
8.r	.
{16e	{Wo
=31	=31
4a	hat
8a	sie
8a	ihr
=32	=32
4a	scho2-
(8.a	-nes
16b)	|
=33	=33
(4cc	To2ch-
8b	-ter-
8b	|
=34	=34
aq	|
4g)}	-lein?"}
4r	.
=35	=35
2r	.
=36	=36
4r	.
8.r	.
{16d	{Mein
=37	=37
4g	Bier
4g	und
=38	=38
4g	Wein
4a	ist
=39	=39
4cc	frisch
4b	und
=40	=40
4g}	klar,}
4r	.
=41	=41
4r	.
8r	.
{8e	{mein
=42	=42
4a	To2ch-
8a	-ter-
8a	-lein
=43	=43
4a	liegt
8b	auf
8cc	der
=44	=44
4dd	Tod-
4cc	-ten-
=45	=45
4a}	-bahr"}
4r	.
=46	=46
2r	.
=47	=47
4r	.
{4d-	{Und
=48	=48
4c	als
4B-	sie
=49	=49
4A	tra-
8g-	-ten
8g-	zur
=50	=50
4fn	Kam-
8e-	-mer
8e-	hin-
=51	=51
4d-	-ein,
4dn	da
=52	=52
4e-	lag
8e-	sie
8e-	in
=53	=53
8e-	ei-
8e-	-nem
8e-	schwarz
8e-	en
=54	=54
4.e-}	Schrein.}
8r	.
=55	=55
2r	.
=56	=56
4r	.
8r	.
{8B	{Der
=57	=57
4B	Er-
8B	-ste,
8B	der
=58	=58
4B	schlug
4e-	den
=59	=59
4e	Schlei-
8e	-er
8e	zu-
=60	=60
4e	-ru2ck
4e	und
=61	=61
4g	schau-
8g	-te
8g	sie
=62	=62
4g	an
4g	mit
=63	=63
(4.g	trau-
8d	|
=64	=64
8b	|
8a)	|
8g	-ri-
8a	-gem
=65	=65
4.b}	Blick:}
{8d	{"Ach
=66	=66
4a	leb-
8.a	-test
16a	du
=67	=67
4a	noch,
4a	du
=68	=68
(4cc	scho2-
4b	-ne
=69	=69
4d)}	Maid,}
4r	.
=70	=70
2r	.
=71	=71
4r	.
8r	.
{8e	{ich
=72	=72
4a	wu2r-
8a	-de
8a	dich
=73	=73
4a	lie-
8a	-ben
8b	von
=74	=74
(4cc	die-
4b	-ser
=75	=75
aq	|
4g)}	Zeit."}
4r	.
=76	=76
2r	.
=77	=77
4r	.
8r	.
{8d	{Der
=78	=78
4d	Zwei-
8d	-te,
8d	der
=79	=79
4d	deck-
8e-	-te
8e-	den
=80	=80
4d	Schlei-
4c	-er
=81	=81
4B-	zu
4d	und
=82	=82
4e-	kehr-
8e-	-te
8e-	sich
=83	=83
4e	ab
4e	und
=84	=84
(4.e	wein-
8B	|
=85	=85
8g#	|
8f#)	|
(8e	-te
8f#)	da-
=86	=86
2a-}	-zu:}
=87	=87
{4f#	{"Ach,
8.f#	dass
16f#	du
=88	=88
4f#	liegst
8.a	auf
16a	der
=89	=89
4cc#	Tod-
4b	-ten-
=90	=90
4f#}	-bahr!}
4r	.
=91	=91
2r	.
=92	=92
4r	.
8r	.
{8c#	{ich
=93	=93
4a	hab'
8.a	dich
16a	ge-
=94	=94
4a	-lie-
8a	-bet
8b	so
=95	=95
4cc#	man-
4b	-ches
=96	=96
4g#}	Jahr!"}
4r	.
=97	=97
4r	.
8r	.
{8B	{Der
=98	=98
4B	Drit-
8B	-te
8B	der
=99	=99
4B	hub
4B	ihn
=100	=100
4e	wie-
8e	-der
8e	so-
=101	=101
4e	-gleich
4e	und
=102	=102
4g	ku2ss-
8g	-te
8g	sie
=103	=103
4g	aud
4g	den
=104	=104
(4.g	Mund
8d	|
=105	=105
8b	|
8a)	|
(8g	so
8a)	|
=106	=106
2b}	bleich:}
=107	=107
{4a	{"Dich
8.a	liebt'
16a	ich
=108	=108
4a	im-
8cc	-mer,
8cc	dich
=109	=109
4ee	lieb'
8dd	ich
8dd	noch
=110	=110
4d}	heut',}
4r	.
=111	=111
2r	.
=112	=112
4r	.
8r	.
{8e	{und
=113	=113
4cc	wer-
8cc	-de
8cc	dich
=114	=114
4ee	lie-
(16dd	-ben
16cc)	|
(16b	in
16a)	|
=115	=115
(8g	E-
8b	|
16a	|
16g	|
16f#	|
16e	|
=116	=116
8e	|
8d	|
8c)	|
8A	-wig-
=117	=117
4G}	-keit!"}
4r	.
=118	=118
2r	.
=119	=119
2r	.
=120	=120
2r	.
=121	=121
2r	.
=122	=122
2r	.
=123	=123
4r	.
8r	.
==	==
*-	*-
